X:1
T:Derry (Holmes), 87.87.87
T:Derry (Holmes), 87.87.87
T:Henry James Ernest Holmes, ca. 1902
T:Public Domain Courtesy of the Cyber Hymnal™
C:Henry James Ernest Holmes, ca. 1902
Z:Public Domain
Z:Courtesy of the Cyber Hymnal™
%%score ( 1 2 ) ( 3 4 )
L:1/8
Q:1/4=110
M:4/4
K:Eb
V:1 treble 
V:2 treble 
V:3 bass 
V:4 bass 
V:1
 [EG]2 [EG]2 [EG]3 [EG] | [EA]2 [EA]2 [EF]2 [DF]2 | [EB]2 [EB]2 [EB]2 (AG) | (FG) [DA]2 [EG]4 | %4
 [EG]2 [Gc]2 c3 z B | [Gc]2 G2 [EB]2 [E=A]2 | [DB]2 [Gc]2 [GB]2 [G=A]2 | [GB]2 z =A G4 | %8
 B3 z B [Bc]2 [Ac]2 | c3 z c [Be]2 [Bd]2 | [Be]3 E [EF]2 (GA) | [EF]2 [DF]2 E4 |] %12
V:2
 x8 | x8 | x6 E2 | E2 x6 | x4 G2 G2 x | x2 G2 x4 | x8 | x2 (^F2 G4) | G2 G2 x5 | =A2 A2 x5 | %10
 x3 E x E2 x | x4 E4 |] %12
V:3
 [E,B,]2 [E,B,]2 [C,C]3 [C,C] | [F,,C]2 [F,,C]2 [B,,B,]2 [A,,B,]2 | %2
 [G,,B,]2 [G,,_D]2 [A,,D]2 [A,,C]2 | [A,,C]2 [B,,B,]2 [E,B,]4 | [C,C]2 [E,C]2 [G,E]2 [G,D]2 x | %5
 [E,C]2 [=E,C]2 [F,C]2 [^F,C]2 | [G,B,]2 [E,G,]2 [D,D]2 [^C,=E]2 | [D,D]2 [D,C]2 [G,B,]4 | %8
 [E,E]2 [E,E]2 [A,E]2 [A,E]2 x | [F,F]2 [F,F]2 [B,F]2 z x2 | [G,E]3 [G,B,] [A,C]2 [A,,C]2 | %11
 (F,G,) [B,,A,]2 [E,G,]4 |] %12
V:4
 x8 | x8 | x8 | x8 | x9 | x8 | x8 | x8 | x9 | x6 (F2 A,) | x8 | B,,2 x6 |] %12

